Newaita/actions/32/object-order-back.svg

<svg height="32" viewBox="0 0 32 32" width="32" xmlns="http://www.w3.org/2000/svg"><g fill="#424242"><path d="m3.308594 26.050781h25.136718c.367188 0 .660157.292969.660157.660157v1.324218c0 .363282-.292969.660156-.660157.660156h-25.136718c-.367188 0-.664063-.296874-.664063-.660156v-1.324218c0-.367188.296875-.660157.664063-.660157zm0 0"/><path d="m15.214844 4.21875h13.230468c.367188 0 .660157.296875.660157.660156v1.324219c0 .367187-.292969.664063-.660157.664063h-13.230468c-.363282 0-.660156-.296876-.660156-.664063v-1.324219c0-.363281.296874-.660156.660156-.660156zm0 0"/><path d="m15.214844 11.496094h13.230468c.367188 0 .660157.296875.660157.660156v1.324219c0 .367187-.292969.660156-.660157.660156h-13.230468c-.363282 0-.660156-.292969-.660156-.660156v-1.324219c0-.363281.296874-.660156.660156-.660156zm0 0"/><path d="m15.214844 18.773438h13.230468c.367188 0 .660157.296874.660157.660156v1.324218c0 .363282-.292969.660157-.660157.660157h-13.230468c-.363282 0-.660156-.296875-.660156-.660157v-1.324218c0-.363282.296874-.660156.660156-.660156zm0 0"/><path d="m5.953125 18.773438h2.648437v-13.875c0-.367188-.296874-.664063-.664062-.664063h-1.324219c-.363281 0-.660156.296875-.660156.664063zm0 0"/><path d="m11.90625 16.789062h-9.261719l4.632813 6.613282zm0 0"/></g></svg>

<svg xmlns="http://www.w3.org/2000/svg" xmlns:xlink="http://www.w3.org/1999/xlink" width="32px" height="32px" viewBox="0 0 32 32" version="1.1">
<g id="surface1">
     <defs>
  <style id="current-color-scheme" type="text/css">
   .ColorScheme-Text { color:#424242; } .ColorScheme-Highlight { color:#eeeeee; }
  </style>
 </defs>
<path style="fill:currentColor" class="ColorScheme-Text" d="M 3.308594 26.050781 L 28.445312 26.050781 C 28.8125 26.050781 29.105469 26.34375 29.105469 26.710938 L 29.105469 28.035156 C 29.105469 28.398438 28.8125 28.695312 28.445312 28.695312 L 3.308594 28.695312 C 2.941406 28.695312 2.644531 28.398438 2.644531 28.035156 L 2.644531 26.710938 C 2.644531 26.34375 2.941406 26.050781 3.308594 26.050781 Z M 3.308594 26.050781 "/>
     <defs>
  <style id="current-color-scheme" type="text/css">
   .ColorScheme-Text { color:#424242; } .ColorScheme-Highlight { color:#eeeeee; }
  </style>
 </defs>
<path style="fill:currentColor" class="ColorScheme-Text" d="M 15.214844 4.21875 L 28.445312 4.21875 C 28.8125 4.21875 29.105469 4.515625 29.105469 4.878906 L 29.105469 6.203125 C 29.105469 6.570312 28.8125 6.867188 28.445312 6.867188 L 15.214844 6.867188 C 14.851562 6.867188 14.554688 6.570312 14.554688 6.203125 L 14.554688 4.878906 C 14.554688 4.515625 14.851562 4.21875 15.214844 4.21875 Z M 15.214844 4.21875 "/>
     <defs>
  <style id="current-color-scheme" type="text/css">
   .ColorScheme-Text { color:#424242; } .ColorScheme-Highlight { color:#eeeeee; }
  </style>
 </defs>
<path style="fill:currentColor" class="ColorScheme-Text" d="M 15.214844 11.496094 L 28.445312 11.496094 C 28.8125 11.496094 29.105469 11.792969 29.105469 12.15625 L 29.105469 13.480469 C 29.105469 13.847656 28.8125 14.140625 28.445312 14.140625 L 15.214844 14.140625 C 14.851562 14.140625 14.554688 13.847656 14.554688 13.480469 L 14.554688 12.15625 C 14.554688 11.792969 14.851562 11.496094 15.214844 11.496094 Z M 15.214844 11.496094 "/>
     <defs>
  <style id="current-color-scheme" type="text/css">
   .ColorScheme-Text { color:#424242; } .ColorScheme-Highlight { color:#eeeeee; }
  </style>
 </defs>
<path style="fill:currentColor" class="ColorScheme-Text" d="M 15.214844 18.773438 L 28.445312 18.773438 C 28.8125 18.773438 29.105469 19.070312 29.105469 19.433594 L 29.105469 20.757812 C 29.105469 21.121094 28.8125 21.417969 28.445312 21.417969 L 15.214844 21.417969 C 14.851562 21.417969 14.554688 21.121094 14.554688 20.757812 L 14.554688 19.433594 C 14.554688 19.070312 14.851562 18.773438 15.214844 18.773438 Z M 15.214844 18.773438 "/>
     <defs>
  <style id="current-color-scheme" type="text/css">
   .ColorScheme-Text { color:#424242; } .ColorScheme-Highlight { color:#eeeeee; }
  </style>
 </defs>
<path style="fill:currentColor" class="ColorScheme-Text" d="M 5.953125 18.773438 L 8.601562 18.773438 L 8.601562 4.898438 C 8.601562 4.53125 8.304688 4.234375 7.9375 4.234375 L 6.613281 4.234375 C 6.25 4.234375 5.953125 4.53125 5.953125 4.898438 Z M 5.953125 18.773438 "/>
     <defs>
  <style id="current-color-scheme" type="text/css">
   .ColorScheme-Text { color:#424242; } .ColorScheme-Highlight { color:#eeeeee; }
  </style>
 </defs>
<path style="fill:currentColor" class="ColorScheme-Text" d="M 11.90625 16.789062 L 2.644531 16.789062 L 7.277344 23.402344 Z M 11.90625 16.789062 "/>
</g>
</svg>
